X:1
T:Handel GF - He shall feed His flock
T:Handel GF - He shall feed His flock
T:Recitatief en aria uit Messiah
T:Georg Friedrich Handel (1685-1759
C:Georg Friedrich Handel (1685-1759
%%score 1 { ( 2 3 6 7 ) | ( 4 5 ) }
L:1/8
Q:3/8=60
M:4/4
K:C
V:1 treble nm="Stem"
V:2 treble nm="B.C."
V:3 treble 
V:6 treble 
V:7 treble 
V:4 bass 
V:5 bass 
V:1
"^Recitatief" z D D E ^F2 F G | A2 z B G G z2 | z2 D D G2 G A | B2 z c G G z C | %4
w: Then shall the eyes of the|blind be o- pen'd,|and the ears of the|deaf un- stop- ped. Then|
 E2 E ^F ^G2 B B/ c/ | A2 z2 z2 A c | A2 A E F2 z A | E2 z2 z4 x4 ||[K:F][M:12/8]"^Aria" z | z12 | %10
w: shall the lame man leap as an|hart, and the|tongue of the dumb shall|sing.|||
 z12 | z12 | z8 z2 z c | (c2 B) A2 G F3 C2 E | (F2 G A>Bc) C3 z2 c | (c2 B) (A2 G) (F2 E) F2 F | %16
w: ||He|shall * feed His flock like a|shep _ _ _ _ herd, and|He * shall * ga- * ther the|
 (d2 c) (=BA) G F6 | (EDF E>F) D C6 |"^A" z8 z z2 c | (c2 B) A2 G F3 C2 E | (F2 G A>Bc) C3 z2 c | %21
w: lambs * with * His arm,|with _ _ _ _ His arm,|He|shall * feed his flock like a|shep _ _ _ _ herd, and|
 (c2 B) (A2 G) (F2 E) F2 F | (d2 c) (=BA) G F6 | (EDF E>F) D C6 |"^B" z8 z2 z c | %25
w: He * shall * ga _ ther the|lambs * with * His arm,|with _ _ _ _ His arm,|and|
 (c2 B) (A2 G) (^F3 G3) | A2 B (B2 A) G3 z2 G | D2 ^C (D2 E) (F2 E F2) G | (A2 G) A2 B c3- c2 c | %29
w: car- * ry * them *|in His bo- * som, and|gent- ly lead * those * * that|are * * with young, * and|
 G2 F (G2 A) B3- B2 B | (A>BA G2) F (E>DC) c2 B | (A3 G2) F F6 | z12 | z8 z2 z f || %34
w: gent- ly lead * those * and|gen- * * * tly lead * * those that|are * with young,||Come|
[K:Bb]"^C" (f2 e) (d2 c) B3- B2 A | B2 c (d>ef) F3 z2 f | (f2 e) (d2 c) B3 B2 B | %37
w: un- * to * Him * all|ye that la- * * bour, come|un- * to * Him, ye that|
 (g2 f) (=ed) c (B/A/) B2- B2 c | (AG) B (AB) G F6 | z8 z2 z f | f2 e d2 c B3- B2 A | %41
w: are * hea- * vy la- * den, * and|He * will give * you rest,|come|un- * to * Him, * all|
 B2 c d>ef F3 z2 f | (f2 e) (d2 c) B3 z2 B | g2 f (=ed) c (B/A/) B2- B2 c | (AG) B (A>B) G F6 | %45
w: ye that la- * * bour, come|un- * to * Him, ye|that are hea- * vy la- * den, * and|He * will give * you rest.|
"^D" z12 | f2 e d2 c =B3 c2 d | (e3 d2) c c3 z2 c | (G2 ^F) (G2 A) (B2 A B2) c | %49
w: |Take His yoke up- on you, and|learn * of Him, for|He * is * meek * * and|
 (d2 c) d2 e f3- f2 f | (c2 B) c2 d e3- e2 e | d3 c2 B (A2 B) z2 e | (d3 c2) B B6 |"^E" z12 | %54
w: low- * ly of heart * and|ye * shall find rest * and|ye shall find rest * un-|to * your souls,||
 f2 e d2 c =B3 c2 d | (e3 d2) c c3 z2 c | (G2 ^F) (G2 A) (B2 A B2) c | (d2 c) d2 e f3- f2 f | %58
w: take His yoke up- on you, and|learn * of Him, for|He * is * meek * * and|low- * ly of heart * and|
 c2 B (c2 d) e3- e2 e | d3 c2 B f3- f2 g | (d3 c2) B B6 | z12 | z12 | z12 | z12 |] %65
w: ye shall find * rest, * and|ye shall find rest * un-|to * your souls.|||||
V:2
 D8 | D4 G4- | G8 | B4 c4- | c4 B4 | A8- | A4 A4 | z2 !wedge!^G2 !wedge!A2 z2 x4 || %8
[K:F][M:12/8] c | c2 B A2 G F3- F2 f | f2 _e d2 c B3- B2 A | B2 A G2 F E>DC c3- | %12
 c>BA B>AG F3- F2 A | (A2 G) F2 E F3- F2 E | (F2 G) A>Bc G2 F E2 c | (c2 B) (A2 G) (F2 E) F2 F | %16
 (d2 c) =BAG F6 | EDc E>FD E2 D F2 c | c2 B A2 G F3- F2 c | (c2 B) A2 G F3- F2 E | %20
 F2 G A>Bc G2 F E2 c | c2 B A2 G F2 E F2 F | d2 c =BAG F6 | G2 c E>FD E2 D C2 c | %24
 c2 B A2 G ^F3- F2 c | c2 B A2 G ^F3 G3 | A2 B B2 A G3- G2 G | D2 ^C D2 E F2 E F2 G | %28
 A2 G A2 B c3- c2 c | G2 F G2 A B3 g>fe | f2 c d2 G G3 c2 B | A3 G2 F F3- F2 f | %32
 f2 _e d2 c B3- B2 A | G>AF A2 G F3- F2 f ||[K:Bb] f2 e d2 c B3- B2 A | B2 c d>ef c2 B c2 f | %36
 f2 e d2 c B3- B2 B | g2 f =edc B/A/ B2- B2 c | AGB ABG A2 G F2 f | f2 e d2 c B3- B2 f | %40
 f2 e d2 c B3- B2 A | B2 c d>ef c2 B A2 f | f2 e d2 c B3- B2 B | g2 f =edc B/A/ B2- B2 c | %44
 c2 f A>BG c2 B A2 G | f2 e d2 c =B2 c d2 e | f2 e d2 c =B3 c2 d | e3 d2 c c3- c2 c | %48
 G2 ^F G2 A B2 A B2 c | d2 c d2 e f3- f2 f | c2 B c2 d e3- e2 e | d3 c2 B A2 B B2 e | %52
 d3 c2 B B2 c d2 e | f2 e d2 c =B2 c d2 e | f2 e d2 c =B3 c2 d | e3 d2 c c3 z2 c | %56
 G2 ^F G2 A B2 A B2 c | d2 c d2 e f3- f2 f | c2 B c2 d e3- e2 e | d3 c2 B f3- f2 g | %60
 d3 c2 B B3- B2 f | f2 e d2 c B3- B2 b | b2 _a g2 f e3- e2 e | e2 d c2 B A>GF f3- | f>ed e>dc B6 |] %65
V:3
 A,8 | A,4 D4- | D8 | G4 G4- | G4 ^G4 | E8- | E4 F4 | x2 E2 E2 x2 x4 ||[K:F][M:12/8] A | %9
 A2 G F2 E x2 C B,2 _e | d2 c B2 A x2 x x2 x | G2 F D2 D x2 G, A3- | A>GF G>FE C3- C2 F | %13
 F3 z2 C C2 B, A,2 C | C2 E F>GA x3 x2 G | A2 G F2 E D2 x D2 D | =B2 A G x2 D2 C D2 =B, | %17
 x2 F C>D=B, C2 x C2 E | F2 D C2 B, A,2 D C2 E | F2 F F2 E x2 D C2 B, | C2 E F>GA C3- C2 G | %21
 A2 G F2 E D3 D2 D | =B2 A G2 E D2 x D2 =B, | EDF C>D=B, C2 x x2 A | A2 G =F2 E D3- D2 A | %25
 A2 G ^F2 D D3 D3 | ^F2 G G2 F D2 _E D2 C | B,2 A, B,3 A,3- A,2 =C | C3- C2 E F2 E F>GF | %29
 E2 D E2 F G2 E B3 | c2 x G2 F E2 E F3 | F3 E2 x C3 B,2 _e | d2 c B2 A D2 F =E2 F | %33
 D2 B, F2 E C2 D C2 _e ||[K:Bb] d2 c B2 A x2 G F2 E | F2 A B>cd F2 G A2 c | d2 c B2 A G3- G2 G | %37
 =e2 x G2 A G3- G2 G | F2 F F2 =E F3 D2 A | d2 c B2 A D2 G F2 d | d2 c B2 A x2 G F2 E | %41
 F2 A B2 d x2 G C2 c | d2 c B2 A G3- G2 F | =e2 d G2 A G2 F G2 G | A2 d F>G=E A2 x F2 _E | %45
 F3 _A3 G2 =A =B2 c | d2 c _B2 G G2 F G2 =B | c3 =B2 x G2 _A G2 F | E2 D E3 D3 G2 =F | %49
 F3- F2 A B2 A B>cB | A2 G A2 B c2 A c>BA | B2 F G2 G F2 D F2 E | B3 A2 x F2 A B2 c | %53
 d2 x4 G2 A =B2 c | d2 c =B2 G G2 F G2 B | c3 =B2 x G2 _A G2 F | E2 D E3 D3 G2 =F | %57
 F3- F2 A B2 A B>cB | A2 G A2 B c2 A c>BA | B3 G2 G c3 B3 | B3 A2 x F2 G F2 e | %61
 d2 c B2 A F2 F E2 _a | g2 e e2 d B3 =A2 B | c2 B G2 G F3 d3- | d>cB c>BA F6 |] %65
V:4
 D,8 | D,4 D,4- | D,8 | F,4 E,4- | E,4 D,4 | C,8- | C,4 D,4 | z2 E,2 A,,2 z2 x4 || %8
[K:F][M:12/8] F, | F,6- F,2 _E, D,2 C, | B,,6- B,,2 A,, G,,2 F,, | E,,2 F,, B,,3- B,,3 A,,>G,,F,, | %12
 C,3 C,,3 F,,6- | F,,12- | F,,3- F,,2 F, E,2 D, C,2 B,, | A,,3 C,3 D,2 C, =B,,2 A,, | %16
 G,,6- G,,2 A,, =B,,2 G,, | C,=B,,A,, G,,2 G,, C,2 _B,, A,,2 G,, | F,,12- | F,,12- | %20
 F,,3- F,,2 F, E,2 D, C,2 B,, | A,,3 C,3 D,2 C, =B,,2 A,, | G,,6- G,,2 A,, =B,,2 G,, | %23
 C,=B,,A,, G,,2 G,, G,2 F, E,2 x | x12 | x12 | x12 | x12 | x12 | x12 | F,3 B,,3- B,,3 A,,2 B,, | %31
 C,3 C,3 F,2 _E, D,2 C, | B,,6- B,,2 A,, G,,2 F,, | B,,2 D, C,2 C,, F,,6 ||[K:Bb] B,,12- | %35
 B,,3- B,,2 B, A,2 G, F,2 E, | D,3 F,3 G,2 F, =E,2 D, | C,12 | F,2 B,, C,2 C,, F,2 E, D,2 C, | %39
 B,,12- | B,,12- | B,,3- B,,2 B, A,2 G, F,2 E, | D,3 F,3 G,2 F, =E,2 D, | C,12 | F,2 B,, C,3 F,6 | %45
 _A,,6 G,,6 | G,,12- | G,,6 C,6- | C,3- C,2 C, G,2 ^F, G,2 A, | B,2 A, B,2 C D2 C D2 E | F12 | %51
 B,3 E,3- E,2 D, D,2 G, | F,3 F,,3 B,,6 | _A,,6 G,,6- | G,,12- | G,,6 C,6- | %56
 C,3- C,2 C, G,2 ^F, G,2 A, | B,2 A, B,2 C D2 C D2 E | F12 | B,3 E,3- E,3 D,2 E, | F,3 F,,3 B,,6- | %61
 B,,6 B,2 _A, G,2 F, | E,6- E,2 D, C,2 B,, | A,,2 B,, E,3- E,3 D,>C,B,, | F,3 F,,3 B,,6 |] %65
V:5
 ^F,,8 | ^F,,4 B,,4- | B,,8 | F,,4 E,,4- | E,,4 D,,4 | C,,8- | C,,4 D,,4 | %7
 x2 !wedge!E,,2 !wedge!A,,,2 x2 x4 ||[K:F][M:12/8] F,, | F,,6- F,,2 x4 | x12 | x12 | x12 | x12 | %14
 x12 | x12 | x12 | x12 | x12 | x12 | x12 | x12 | x12 | x5 G,,, C,,6 | D,,12- | D,,12- | %26
 D,,6 G,,6- | G,,3- G,,2 G,, D,2 ^C, D,2 E, | F,2 E, F,2 G, A,2 G, A,2 B, | C12 | x12 | %31
 x3 C,,3 F,,2 x4 | x12 | x12 ||[K:Bb] x12 | x12 | x12 | x12 | x12 | x12 | x12 | x12 | x12 | x12 | %44
 x5 B, A,3 x3 | x12 | x12 | x12 | x12 | x12 | x12 | x12 | x12 | x12 | x12 | x12 | x12 | x12 | x12 | %59
 x12 | x12 | x12 | x12 | x12 | x12 |] %65
V:6
 x8 | x4 G,4- | G,8 | D4 C4- | C4 E4 | x8 | x4 D4 | x2 B,2 C2 x6 ||[K:F][M:12/8] C | %9
 C3- C2 B, A,2 A, x2 A | B2 x F2 _E D2 C B,2 x | C2 C B,2 A, G,2 E, F3- | %12
 F3/2 x/ C C3/2 x/ B, A,3- A,2 x | C3- C2 B, A,2 G, F,2 G, | A,2 C C3- C3- C2 E | %15
 F2 E C2 B, A,3 G,2 C | D2 x D2 E =B,2 A, G,2 G, | G,2 C x2 x G,3 x2 _B, | %18
 A,2 x x2 x x2 B, A,2 B, | A,2 D C2 B, A,2 B, A,2 G, | A,2 C C3 x2 x x2 E | F2 E C2 B, A,3 G,2 C | %22
 D3- D2 x =B,2 C G,2 G, | x x C x x x x2 x x2 E | ^F2 x A,B,C A,3- A,2 F | ^F2 D C2 B, A,3 B,3 | %26
 C2 B, D2 C B,2 C B,2 A, | x12 | x12 | x12 | A>BA x3 C>DC C2 D | C3 B,3 A,3 x2 A | %32
 B2 x F2 _E x2 C B,2 C | x3 C2 C A,2 B, A,2 A ||[K:Bb] B2 E F2 E D2 E D2 C | D2 F F2 F x5 A | %36
 B3 F2 E D3 =E2 F | G3 x3 =E3- E2 E | C2 D C2 C C3 x3 | B2 x3 E x2 E D2 x | x3 F2 E D2 E D2 C | %41
 D2 F F2 B F2 x3 A | B2 A F2 E D3 C2 x | G3 =E2 F E2 F x2 E | FGF C2 x F3 x3 | D3 F3 D2 C =B,2 x | %46
 =B2 G F2 E D2 x E2 G | G3 F3 E2 F E2 D | x12 | x12 | x12 | F2 x E2 C C2 x4 | F3 E3 D2 F F3 | %53
 B3 F3 D3 G3 | =B2 x F2 E D2 D E2 D | G3 F3 E2 F E2 D | x12 | x12 | x12 | x12 | F3 E3 D2 E D2 A | %61
 B2 A F2 E D2 D x2 d | e2 c B2 _A G2 F E2 G | F2 F E2 D C3 B3- | B2 x A2 E D6 |] %65
V:7
 x8 | x8 | x8 | x8 | x8 | x8 | x8 | x12 ||[K:F][M:12/8] x | x12 | x12 | x4 x4 x C3- | C2 x10 | %13
 x12 | x12 | x12 | x12 | x12 | x12 | x12 | x12 | x12 | x12 | x12 | x12 | D2 x10 | x12 | x12 | x12 | %29
 x12 | x12 | x12 | x12 | x5 B, x6 ||[K:Bb] x12 | x12 | x12 | x12 | x12 | F3- F2 x7 | x12 | %41
 x5 F x6 | x12 | x12 | x2 B x9 | x12 | x12 | x12 | x12 | x12 | x12 | x12 | x12 | x12 | G3 x9 | %55
 x12 | x12 | x12 | x12 | x12 | x12 | x12 | x12 | x9 F3- | F2 F F2 x7 |] %65

